icons/numpy/numpy-original-wordmark.svg

<?xml version="1.0" encoding="UTF-8"?>
<svg xmlns="http://www.w3.org/2000/svg" xmlns:xlink="http://www.w3.org/1999/xlink" width="128pt" height="128pt" viewBox="0 0 128 128" version="1.1">
<g id="surface1">
<path style=" stroke:none;fill-rule:nonzero;fill:rgb(0.392157%,19.607843%,26.27451%);fill-opacity:1;" d="M 52.730469 55.070312 C 52.84375 55.082031 52.949219 55.113281 53.050781 55.15625 C 53.152344 55.207031 53.246094 55.265625 53.324219 55.34375 C 53.429688 55.441406 53.527344 55.546875 53.621094 55.660156 L 61.828125 66.035156 C 61.792969 65.703125 61.769531 65.378906 61.753906 65.070312 C 61.738281 64.761719 61.730469 64.464844 61.730469 64.1875 L 61.730469 55.035156 L 65.265625 55.035156 L 65.265625 72.308594 L 63.175781 72.308594 C 62.910156 72.316406 62.644531 72.269531 62.394531 72.167969 C 62.148438 72.046875 61.9375 71.867188 61.777344 71.644531 L 53.632812 61.367188 C 53.65625 61.664062 53.675781 61.957031 53.691406 62.246094 C 53.707031 62.535156 53.714844 62.804688 53.714844 63.058594 L 53.714844 72.320312 L 50.183594 72.320312 L 50.183594 55.035156 L 52.292969 55.035156 C 52.4375 55.035156 52.585938 55.046875 52.730469 55.070312 Z M 52.730469 55.070312 "/>
<path style=" stroke:none;fill-rule:nonzero;fill:rgb(0.392157%,19.607843%,26.27451%);fill-opacity:1;" d="M 70.441406 60.011719 L 70.441406 67.8125 C 70.441406 68.421875 70.578125 68.890625 70.855469 69.222656 C 71.164062 69.570312 71.613281 69.753906 72.078125 69.722656 C 72.46875 69.722656 72.855469 69.640625 73.210938 69.472656 C 73.582031 69.292969 73.929688 69.054688 74.234375 68.773438 L 74.234375 60.011719 L 77.910156 60.011719 L 77.910156 72.304688 L 75.636719 72.304688 C 75.226562 72.339844 74.847656 72.082031 74.730469 71.6875 L 74.507812 70.976562 C 74.277344 71.203125 74.03125 71.410156 73.773438 71.601562 C 73.519531 71.785156 73.246094 71.945312 72.960938 72.074219 C 72.660156 72.210938 72.34375 72.316406 72.019531 72.386719 C 71.664062 72.464844 71.296875 72.503906 70.933594 72.5 C 70.320312 72.511719 69.714844 72.390625 69.152344 72.148438 C 68.648438 71.925781 68.199219 71.59375 67.84375 71.171875 C 67.476562 70.738281 67.203125 70.234375 67.035156 69.691406 C 66.847656 69.082031 66.757812 68.453125 66.761719 67.816406 L 66.761719 60.011719 Z M 70.441406 60.011719 "/>
<path style=" stroke:none;fill-rule:nonzero;fill:rgb(0.392157%,19.607843%,26.27451%);fill-opacity:1;" d="M 80.28125 72.308594 L 80.28125 60.011719 L 82.558594 60.011719 C 82.761719 60.003906 82.960938 60.058594 83.132812 60.164062 C 83.292969 60.277344 83.410156 60.441406 83.460938 60.628906 L 83.65625 61.292969 C 83.855469 61.082031 84.070312 60.882812 84.296875 60.699219 C 84.519531 60.519531 84.757812 60.367188 85.015625 60.238281 C 85.574219 59.953125 86.195312 59.808594 86.824219 59.816406 C 87.484375 59.789062 88.136719 59.992188 88.667969 60.390625 C 89.167969 60.792969 89.550781 61.324219 89.773438 61.925781 C 89.96875 61.5625 90.222656 61.230469 90.527344 60.953125 C 90.816406 60.691406 91.136719 60.472656 91.488281 60.300781 C 91.835938 60.136719 92.199219 60.011719 92.578125 59.933594 C 92.953125 59.855469 93.339844 59.816406 93.722656 59.816406 C 94.363281 59.804688 94.996094 59.910156 95.597656 60.128906 C 96.117188 60.324219 96.585938 60.636719 96.964844 61.042969 C 97.347656 61.46875 97.632812 61.96875 97.800781 62.515625 C 98 63.152344 98.097656 63.820312 98.085938 64.492188 L 98.085938 72.304688 L 94.410156 72.304688 L 94.410156 64.496094 C 94.410156 63.222656 93.863281 62.589844 92.773438 62.589844 C 92.3125 62.574219 91.863281 62.753906 91.535156 63.082031 C 91.207031 63.40625 91.042969 63.878906 91.042969 64.496094 L 91.042969 72.308594 L 87.371094 72.308594 L 87.371094 64.496094 C 87.371094 63.792969 87.234375 63.296875 86.957031 63.015625 C 86.679688 62.730469 86.273438 62.589844 85.734375 62.589844 C 85.40625 62.589844 85.085938 62.664062 84.792969 62.8125 C 84.484375 62.972656 84.203125 63.175781 83.957031 63.417969 L 83.957031 72.3125 Z M 80.28125 72.308594 "/>
<path style=" stroke:none;fill-rule:nonzero;fill:rgb(0.392157%,19.607843%,26.27451%);fill-opacity:1;" d="M 104.230469 66.535156 L 104.230469 72.308594 L 100.222656 72.308594 L 100.222656 55.035156 L 106.316406 55.035156 C 107.378906 55.011719 108.4375 55.15625 109.453125 55.464844 C 110.246094 55.707031 110.980469 56.109375 111.609375 56.648438 C 112.164062 57.140625 112.59375 57.753906 112.863281 58.441406 C 113.132812 59.152344 113.265625 59.910156 113.257812 60.667969 C 113.265625 61.480469 113.125 62.285156 112.84375 63.042969 C 112.574219 63.75 112.136719 64.386719 111.574219 64.890625 C 110.945312 65.441406 110.207031 65.851562 109.410156 66.09375 C 108.410156 66.40625 107.367188 66.554688 106.316406 66.535156 Z M 104.230469 63.511719 L 106.316406 63.511719 C 107.359375 63.511719 108.113281 63.265625 108.570312 62.765625 C 109.027344 62.265625 109.257812 61.578125 109.257812 60.679688 C 109.261719 60.3125 109.203125 59.945312 109.082031 59.601562 C 108.96875 59.285156 108.78125 58.996094 108.542969 58.765625 C 108.28125 58.519531 107.96875 58.335938 107.628906 58.222656 C 107.203125 58.085938 106.761719 58.019531 106.316406 58.027344 L 104.230469 58.027344 Z M 104.230469 63.511719 "/>
<path style=" stroke:none;fill-rule:nonzero;fill:rgb(0.392157%,19.607843%,26.27451%);fill-opacity:1;" d="M 120.378906 75.5 C 120.296875 75.710938 120.160156 75.894531 119.984375 76.039062 C 119.753906 76.171875 119.488281 76.230469 119.222656 76.210938 L 116.464844 76.210938 L 118.839844 71.234375 L 113.933594 60.011719 L 117.179688 60.011719 C 117.417969 60 117.652344 60.070312 117.84375 60.210938 C 117.996094 60.324219 118.109375 60.480469 118.175781 60.660156 L 120.191406 65.960938 C 120.378906 66.4375 120.53125 66.925781 120.652344 67.425781 C 120.734375 67.171875 120.820312 66.921875 120.914062 66.679688 C 121.007812 66.4375 121.101562 66.183594 121.1875 65.933594 L 123.015625 60.65625 C 123.082031 60.464844 123.214844 60.304688 123.386719 60.199219 C 123.5625 60.082031 123.769531 60.015625 123.980469 60.015625 L 126.945312 60.015625 Z M 120.378906 75.5 "/>
<path style=" stroke:none;fill-rule:nonzero;fill:rgb(30.196078%,67.058824%,81.176471%);fill-opacity:1;" d="M 19.113281 49.414062 L 11.773438 45.710938 L 3.714844 49.730469 L 11.257812 53.515625 Z M 19.113281 49.414062 "/>
<path style=" stroke:none;fill-rule:nonzero;fill:rgb(30.196078%,67.058824%,81.176471%);fill-opacity:1;" d="M 22.480469 51.113281 L 30.175781 55 L 22.191406 59.007812 L 14.640625 55.21875 Z M 22.480469 51.113281 "/>
<path style=" stroke:none;fill-rule:nonzero;fill:rgb(30.196078%,67.058824%,81.176471%);fill-opacity:1;" d="M 32.761719 45.765625 L 40.667969 49.730469 L 33.597656 53.28125 L 25.882812 49.390625 Z M 32.761719 45.765625 "/>
<path style=" stroke:none;fill-rule:nonzero;fill:rgb(30.196078%,67.058824%,81.176471%);fill-opacity:1;" d="M 29.355469 44.058594 L 22.238281 40.488281 L 15.195312 44.003906 L 22.53125 47.699219 Z M 29.355469 44.058594 "/>
<path style=" stroke:none;fill-rule:nonzero;fill:rgb(30.196078%,67.058824%,81.176471%);fill-opacity:1;" d="M 23.792969 74.710938 L 23.792969 84.425781 L 32.414062 80.121094 L 32.40625 70.402344 Z M 23.792969 74.710938 "/>
<path style=" stroke:none;fill-rule:nonzero;fill:rgb(30.196078%,67.058824%,81.176471%);fill-opacity:1;" d="M 32.402344 67.011719 L 32.394531 57.394531 L 23.792969 61.671875 L 23.792969 71.292969 Z M 32.402344 67.011719 "/>
<path style=" stroke:none;fill-rule:nonzero;fill:rgb(30.196078%,67.058824%,81.176471%);fill-opacity:1;" d="M 42.757812 65.210938 L 42.757812 74.964844 L 35.402344 78.632812 L 35.394531 68.925781 Z M 42.757812 65.210938 "/>
<path style=" stroke:none;fill-rule:nonzero;fill:rgb(30.196078%,67.058824%,81.176471%);fill-opacity:1;" d="M 42.757812 61.800781 L 42.757812 52.242188 L 35.386719 55.90625 L 35.394531 65.542969 Z M 42.757812 61.800781 "/>
<path style=" stroke:none;fill-rule:nonzero;fill:rgb(30.196078%,46.666667%,81.176471%);fill-opacity:1;" d="M 20.746094 61.671875 L 14.941406 58.75 L 14.941406 71.371094 C 14.941406 71.371094 7.835938 56.253906 7.179688 54.898438 C 7.09375 54.722656 6.746094 54.527344 6.65625 54.480469 C 5.375 53.8125 1.644531 51.921875 1.644531 51.921875 L 1.644531 74.230469 L 6.808594 76.996094 L 6.808594 65.332031 C 6.808594 65.332031 13.835938 78.839844 13.90625 78.988281 C 13.980469 79.136719 14.683594 80.558594 15.4375 81.058594 C 16.441406 81.722656 20.742188 84.3125 20.742188 84.3125 Z M 20.746094 61.671875 "/>
</g>
</svg>

<?xml version="1.0" encoding="UTF-8"?><svg width="128pt" height="128pt" version="1.1" viewBox="0 0 128 128" xmlns="http://www.w3.org/2000/svg"><path d="m52.73 55.07c0.11328 0.01172 0.21875 0.04297 0.32031 0.08594 0.10156 0.05078 0.19531 0.10938 0.27344 0.1875 0.10547 0.09766 0.20312 0.20312 0.29688 0.31641l8.207 10.375c-0.03516-0.33203-0.05859-0.65625-0.07422-0.96484-0.01563-0.30859-0.02344-0.60547-0.02344-0.88281v-9.1523h3.5352v17.273h-2.0898c-0.26562 0.0078-0.53125-0.03906-0.78125-0.14062-0.24609-0.1211-0.45703-0.30078-0.61718-0.52344l-8.1445-10.277c0.02344 0.29687 0.04297 0.58984 0.05859 0.87891 0.01563 0.28906 0.02344 0.55859 0.02344 0.8125v9.2617h-3.5312v-17.285h2.1094c0.14453 0 0.29297 0.01172 0.4375 0.03516z" color="#000000" fill="#003042" style="-inkscape-stroke:none"/><path d="m70.441 60.012v7.8008c0 0.60938 0.13672 1.0781 0.41406 1.4102 0.30859 0.34766 0.75781 0.53125 1.2227 0.5 0.39062 0 0.77734-0.08203 1.1328-0.25 0.37109-0.17969 0.71875-0.41797 1.0234-0.69922v-8.7617h3.6758v12.293h-2.2734c-0.41016 0.03516-0.78906-0.22266-0.90625-0.61719l-0.22266-0.71094c-0.23047 0.22656-0.47656 0.43359-0.73437 0.625-0.25391 0.18359-0.52734 0.34375-0.8125 0.47266-0.30078 0.13672-0.61719 0.24219-0.94141 0.3125-0.35547 0.07813-0.72266 0.11719-1.0859 0.11328-0.61328 0.01172-1.2188-0.10938-1.7812-0.35156-0.50391-0.22266-0.95312-0.55469-1.3086-0.97656-0.36719-0.43359-0.64062-0.9375-0.80859-1.4805-0.1875-0.60938-0.27734-1.2383-0.27344-1.875v-7.8047z" color="#000000" fill="#003042" style="-inkscape-stroke:none"/><path d="m80.281 72.309v-12.297h2.2773c0.20312-0.0078 0.40234 0.04687 0.57422 0.15234 0.16016 0.11328 0.27734 0.27734 0.32813 0.46484l0.19531 0.66406c0.19922-0.21094 0.41406-0.41016 0.64062-0.59375 0.22266-0.17969 0.46094-0.33203 0.71875-0.46094 0.55859-0.28516 1.1797-0.42969 1.8086-0.42188 0.66016-0.02734 1.3125 0.17578 1.8438 0.57422 0.5 0.40234 0.88281 0.93359 1.1055 1.5352 0.19531-0.36328 0.44922-0.69531 0.75391-0.97266 0.28906-0.26172 0.60938-0.48047 0.96094-0.65234 0.34766-0.16406 0.71094-0.28906 1.0898-0.36719 0.375-0.07813 0.76172-0.11719 1.1445-0.11719 0.64062-0.01172 1.2734 0.09375 1.875 0.3125 0.51953 0.19531 0.98828 0.50781 1.3672 0.91406 0.38281 0.42578 0.66797 0.92578 0.83594 1.4727 0.19922 0.63672 0.29688 1.3047 0.28516 1.9766v7.8125h-3.6758v-7.8086c0-1.2734-0.54688-1.9062-1.6367-1.9062-0.46094-0.01563-0.91016 0.16406-1.2383 0.49219-0.32812 0.32422-0.49219 0.79688-0.49219 1.4141v7.8125h-3.6719v-7.8125c0-0.70312-0.13672-1.1992-0.41406-1.4805-0.27734-0.28516-0.68359-0.42578-1.2227-0.42578-0.32812 0-0.64844 0.07422-0.94141 0.22266-0.30859 0.16016-0.58984 0.36328-0.83594 0.60547v8.8945z" color="#000000" fill="#003042" style="-inkscape-stroke:none"/><path d="m104.23 66.535v5.7734h-4.0078v-17.273h6.0938c1.0625-0.02344 2.1211 0.12109 3.1367 0.42969 0.79296 0.24219 1.5273 0.64453 2.1562 1.1836 0.55468 0.49219 0.98437 1.1055 1.2539 1.793 0.26953 0.71094 0.40235 1.4688 0.39453 2.2266 8e-3 0.8125-0.13281 1.6172-0.41406 2.375-0.26953 0.70703-0.70703 1.3438-1.2695 1.8477-0.62891 0.55078-1.3672 0.96094-2.1641 1.2031-1 0.3125-2.043 0.46094-3.0938 0.44141zm0-3.0234h2.0859c1.043 0 1.7969-0.24609 2.2539-0.74609s0.6875-1.1875 0.6875-2.0859c4e-3 -0.36719-0.0547-0.73438-0.17578-1.0781-0.11328-0.31641-0.30078-0.60547-0.53906-0.83594-0.26172-0.24609-0.57422-0.42969-0.91406-0.54297-0.42578-0.13672-0.86719-0.20312-1.3125-0.19531h-2.0859z" color="#000000" fill="#003042" style="-inkscape-stroke:none"/><path d="m120.38 75.5c-0.082 0.21094-0.21875 0.39453-0.39453 0.53906-0.23047 0.13281-0.4961 0.19141-0.76172 0.17188h-2.7578l2.375-4.9766-4.9062-11.223h3.2461c0.23828-0.01172 0.47265 0.05859 0.66406 0.19922 0.15234 0.11328 0.26563 0.26953 0.33203 0.44922l2.0156 5.3008c0.1875 0.47656 0.33984 0.96484 0.46093 1.4648 0.082-0.25391 0.16797-0.50391 0.26172-0.74609 0.0937-0.24219 0.1875-0.49609 0.27344-0.74609l1.8281-5.2773c0.0664-0.19141 0.19921-0.35156 0.37109-0.45703 0.17578-0.11719 0.38281-0.18359 0.59375-0.18359h2.9648z" color="#000000" fill="#003042" style="-inkscape-stroke:none"/><path d="m19.113 49.414-7.3398-3.7031-8.0586 4.0195 7.543 3.7852z" color="#000000" fill="#4cabcf" style="-inkscape-stroke:none"/><path d="m22.48 51.113 7.6953 3.8867-7.9844 4.0078-7.5508-3.7891z" color="#000000" fill="#4cabcf" style="-inkscape-stroke:none"/><path d="m32.762 45.766 7.9062 3.9648-7.0703 3.5508-7.7148-3.8906z" color="#000000" fill="#4cabcf" style="-inkscape-stroke:none"/><path d="m29.355 44.059-7.1172-3.5703-7.043 3.5156 7.3359 3.6953z" color="#000000" fill="#4cabcf" style="-inkscape-stroke:none"/><path d="m23.793 74.711v9.7148l8.6211-4.3047-0.0078-9.7188z" color="#000000" fill="#4cabcf" style="-inkscape-stroke:none"/><path d="m32.402 67.012-0.0078-9.6172-8.6016 4.2773v9.6211z" color="#000000" fill="#4cabcf" style="-inkscape-stroke:none"/><path d="m42.758 65.211v9.7539l-7.3555 3.668-0.0078-9.707z" color="#000000" fill="#4cabcf" style="-inkscape-stroke:none"/><path d="m42.758 61.801v-9.5586l-7.3711 3.6641 0.0078 9.6367z" color="#000000" fill="#4cabcf" style="-inkscape-stroke:none"/><path d="m20.746 61.672-5.8047-2.9219v12.621s-7.1055-15.117-7.7617-16.473c-0.085938-0.17578-0.43359-0.37109-0.52344-0.41797-1.2812-0.66797-5.0117-2.5586-5.0117-2.5586v22.309l5.1641 2.7656v-11.664s7.0273 13.508 7.0977 13.656c0.07422 0.14844 0.77734 1.5703 1.5312 2.0703 1.0039 0.66406 5.3047 3.2539 5.3047 3.2539z" color="#000000" fill="#4c75cf" style="-inkscape-stroke:none"/></svg>
